dist/svg/static/recommended-destination-large.svg

<svg xmlns="http://www.w3.org/2000/svg" width="48" height="48" viewBox="0 0 48 48"><g stroke="currentColor" stroke-miterlimit="10"><path fill="none" d="M3.5 3v44M21.5 31.5l-2-2h-13v-26h16l2 2h12V15"/><path d="M6.5 3.5h9v8h-9zM16.5 12.5h10v9h-10zM27.5 5.5h9v6h-9zM6.5 22.5h9v7h-9z"/><g fill="none"><path d="M33.5 37l-.75-2.438c-2.321-1.371-4.25-4.177-4.25-7.084 0-4.364 3.5-7.978 8.5-7.978s8.5 3.636 8.5 8c0 2.878-1.966 5.62-4.25 7L40.5 37M34 41.5h6M34 39.5h6M35 43.5h4"/></g></g></svg>

<?xml version="1.0" encoding="UTF-8" standalone="no"?>
<svg width="48px" height="48px" viewBox="0 0 48 48" version="1.1" xmlns="http://www.w3.org/2000/svg" xmlns:xlink="http://www.w3.org/1999/xlink">
    <!-- Generator: sketchtool 46.2 (44496) - http://www.bohemiancoding.com/sketch -->
    <title>recommended-destination-large</title>
    <desc>Created with sketchtool.</desc>
    <defs></defs>
    <g id="icons-published" stroke="none" stroke-width="1" fill="none" fill-rule="evenodd">
        <g id="briefing" transform="translate(-2304.000000, -1434.000000)"></g>
        <g id="recommended-destination-large" stroke="#000000">
            <path d="M3.5,3 L3.5,47 M21.5,31.5 L19.5,29.5 L6.5,29.5 L6.5,3.5 L22.5,3.5 L24.5,5.5 L36.5,5.5 L36.5,15" id="Shape"></path>
            <path d="M6.5,3.5 L15.5,3.5 L15.5,11.5 L6.5,11.5 L6.5,3.5 Z M16.5,12.5 L26.5,12.5 L26.5,21.5 L16.5,21.5 L16.5,12.5 Z M27.5,5.5 L36.5,5.5 L36.5,11.5 L27.5,11.5 L27.5,5.5 Z M6.5,22.5 L15.5,22.5 L15.5,29.5 L6.5,29.5 L6.5,22.5 Z" id="Shape" fill="#000000" fill-rule="nonzero"></path>
            <path d="M33.5,37 L32.7,34.6 C30.4,33.2 28.5,30.4 28.5,27.5 C28.5,23.1 32,19.5 37,19.5 C42,19.5 45.5,23.1 45.5,27.5 C45.5,30.4 43.5,33.1 41.3,34.5 L40.5,37 M34,41.5 L40,41.5 M34,39.5 L40,39.5 M35,43.5 L39,43.5" id="Shape"></path>
        </g>
    </g>
</svg>
